report_00007_2020-12-11T15:55:29.892Z/first-contentful-paint/comparison/line/1_vs_2.svg

<svg width="640" height="500" xmlns="http://www.w3.org/2000/svg" xmlns:xlink="http://www.w3.org/1999/xlink"><path fill="#fff" d="M0 0h640v500H0z"/><defs><path id="d" stroke-width=".222" stroke="currentColor" d="M-1-1h2v2h-2z"/><path id="b" stroke-width=".222" stroke="currentColor" d="M0-1.33l-1.33 2h2.66z"/><path id="f" stroke-width=".222" stroke="currentColor" d="M0 1.33L1.265.411.782-1.067l-1.564-.009-.483 1.487z"/><use xlink:href="#b" id="c" stroke="currentColor" transform="rotate(180)"/><use xlink:href="#d" id="e" stroke="currentColor" transform="rotate(45)"/><circle id="a" stroke-width=".222" stroke="currentColor" cx="0" cy="0" r="1"/></defs><g fill="none" color="#000" stroke="currentColor"><path stroke="#000" d="M62.2 415.9h9m543.8 0h-9"/><text transform="translate(53.9 419.8)" stroke="none" fill="#000" font-family="Arial" font-size="12" text-anchor="end"><tspan>1950</tspan></text></g><g fill="none" color="#000" stroke="currentColor"><path stroke="#000" d="M62.2 373.2h9m543.8 0h-9"/><text transform="translate(53.9 377.1)" stroke="none" fill="#000" font-family="Arial" font-size="12" text-anchor="end"><tspan>2000</tspan></text></g><g fill="none" color="#000" stroke="currentColor"><path stroke="#000" d="M62.2 330.6h9m543.8 0h-9"/><text transform="translate(53.9 334.5)" stroke="none" fill="#000" font-family="Arial" font-size="12" text-anchor="end"><tspan>2050</tspan></text></g><g fill="none" color="#000" stroke="currentColor"><path stroke="#000" d="M62.2 288h9m543.8 0h-9"/><text transform="translate(53.9 291.9)" stroke="none" fill="#000" font-family="Arial" font-size="12" text-anchor="end"><tspan>2100</tspan></text></g><g fill="none" color="#000" stroke="currentColor"><path stroke="#000" d="M62.2 245.4h9m543.8 0h-9"/><text transform="translate(53.9 249.3)" stroke="none" fill="#000" font-family="Arial" font-size="12" text-anchor="end"><tspan>2150</tspan></text></g><g fill="none" color="#000" stroke="currentColor"><path stroke="#000" d="M62.2 202.7h9m543.8 0h-9"/><text transform="translate(53.9 206.6)" stroke="none" fill="#000" font-family="Arial" font-size="12" text-anchor="end"><tspan>2200</tspan></text></g><g fill="none" color="#000" stroke="currentColor"><path stroke="#000" d="M62.2 160.1h9m543.8 0h-9"/><text transform="translate(53.9 164)" stroke="none" fill="#000" font-family="Arial" font-size="12" text-anchor="end"><tspan>2250</tspan></text></g><g fill="none" color="#000" stroke="currentColor"><path stroke="#000" d="M62.2 117.5h9m543.8 0h-9"/><text transform="translate(53.9 121.4)" stroke="none" fill="#000" font-family="Arial" font-size="12" text-anchor="end"><tspan>2300</tspan></text></g><g fill="none" color="#000" stroke="currentColor"><path stroke="#000" d="M62.2 74.9h9m543.8 0h-9"/><text transform="translate(53.9 78.8)" stroke="none" fill="#000" font-family="Arial" font-size="12" text-anchor="end"><tspan>2350</tspan></text></g><g fill="none" color="#000" stroke="currentColor"><path stroke="#000" d="M62.2 32.3h9m543.8 0h-9"/><text transform="translate(53.9 36.2)" stroke="none" fill="#000" font-family="Arial" font-size="12" text-anchor="end"><tspan>2400</tspan></text></g><g fill="none" color="#000" stroke="currentColor"><path stroke="#000" d="M62.2 428v-9m0-400.9v9"/><text transform="translate(62.2 449.9)" stroke="none" fill="#000" font-family="Arial" font-size="12" text-anchor="middle"><tspan>0</tspan></text></g><g fill="none" color="#000" stroke="currentColor"><path stroke="#000" d="M118 428v-9m0-400.9v9"/><text transform="translate(118 449.9)" stroke="none" fill="#000" font-family="Arial" font-size="12" text-anchor="middle"><tspan>10</tspan></text></g><g fill="none" color="#000" stroke="currentColor"><path stroke="#000" d="M173.9 428v-9m0-400.9v9"/><text transform="translate(173.9 449.9)" stroke="none" fill="#000" font-family="Arial" font-size="12" text-anchor="middle"><tspan>20</tspan></text></g><g fill="none" color="#000" stroke="currentColor"><path stroke="#000" d="M229.7 428v-9m0-400.9v9"/><text transform="translate(229.7 449.9)" stroke="none" fill="#000" font-family="Arial" font-size="12" text-anchor="middle"><tspan>30</tspan></text></g><g fill="none" color="#000" stroke="currentColor"><path stroke="#000" d="M285.6 428v-9m0-400.9v9"/><text transform="translate(285.6 449.9)" stroke="none" fill="#000" font-family="Arial" font-size="12" text-anchor="middle"><tspan>40</tspan></text></g><g fill="none" color="#000" stroke="currentColor"><path stroke="#000" d="M341.4 428v-9m0-400.9v9"/><text transform="translate(341.4 449.9)" stroke="none" fill="#000" font-family="Arial" font-size="12" text-anchor="middle"><tspan>50</tspan></text></g><g fill="none" color="#000" stroke="currentColor"><path stroke="#000" d="M397.2 428v-9m0-400.9v9"/><text transform="translate(397.2 449.9)" stroke="none" fill="#000" font-family="Arial" font-size="12" text-anchor="middle"><tspan>60</tspan></text></g><g fill="none" color="#000" stroke="currentColor"><path stroke="#000" d="M453.1 428v-9m0-400.9v9"/><text transform="translate(453.1 449.9)" stroke="none" fill="#000" font-family="Arial" font-size="12" text-anchor="middle"><tspan>70</tspan></text></g><g fill="none" color="#000" stroke="currentColor"><path stroke="#000" d="M508.9 428v-9m0-400.9v9"/><text transform="translate(508.9 449.9)" stroke="none" fill="#000" font-family="Arial" font-size="12" text-anchor="middle"><tspan>80</tspan></text></g><g fill="none" color="#000" stroke="currentColor"><path stroke="#000" d="M564.7 428v-9m0-400.9v9"/><text transform="translate(564.7 449.9)" stroke="none" fill="#000" font-family="Arial" font-size="12" text-anchor="middle"><tspan>90</tspan></text></g><path stroke="#000" d="M62.2 18.1V428H615V18.1H62.2z" fill="none" color="#000"/><text transform="translate(279.8 467.9)" stroke="none" fill="#000" font-family="Arial" font-size="12" text-anchor="end" color="#000"><tspan>pages</tspan></text><path stroke="#9400D3" d="M288.1 464h42.2M62.2 26l5.6 381.3 5.6 1.3 5.6-30.7 5.5 37.5 5.6-4.9 5.6 2.9 5.6-3.6 5.6 6.4 5.6-2.7 5.5 5.6 5.6-175 5.6 167.8 5.6 5.2 5.6-3.8L146 366l5.5 46.3 5.6 4 5.6 2.8 5.6-19 5.6 15.7 5.6 2.6 5.5-197.8 5.6 140 5.6 52 5.6 7.5 5.6-12.3 5.6 3.4 5.5 4.8 5.6 1.1 5.6-7 5.6 3.7 5.6 1.4 5.6 3 5.6-86.8 5.5 84.3 5.6 2.7 5.6-4.3 5.6-2.3 5.6 4.8 5.6-6.4 5.5 8.4 5.6-9.9 5.6-50.1 5.6 56.3 5.6-67.3 5.6 59 5.5 7.6 5.6 2.7 5.6-4.8 5.6-132.2 5.6 131.3 5.6 8.3 5.5-6.4 5.6-7.3 5.6 13.7 5.6-203.6 5.6 194.3 5.6 4.3 5.5 5.5 5.6-68.5 5.6 67.7 5.6-.2 5.6-3.3 5.6-6.4 5.5 9.6 5.6-1.9 5.6 3 5.6-105.8 5.6 104.3 5.6-.5 5.6-2.6 5.5-1.4 5.6 4.9 5.6-1.6h5.6l5.6-9.6 5.6 10.8 5.5-2 5.6-95.4 5.6 87.9 5.6 6.3 5.6 2.7 5.6-3.6 5.5-3.2 5.6-152.7 5.6 152.8 5.6.2 5.6 8.6 5.6-195.9 5.5 190.9 5.6-2.1 5.6 6.6 5.6-6.5 5.6-.1 5.6-52.1 5.5 53.1 5.6-2.6 5.6 6.7 5.6-9.6" fill="none" color="#000"/><text transform="translate(279.8 485.9)" stroke="none" fill="#000" font-family="Arial" font-size="12" text-anchor="end" color="#000"><tspan>pages+cached</tspan></text><path stroke="#009E73" d="M288.1 482h42.2M62.2 417.6l5.6-30.3 5.6-185.7L79 392.4l5.5 2.3 5.6-197.8 5.6 197.2 5.6-64.1 5.6 64.1 5.6-1.7 5.5 2.2 5.6-200.2 5.6 201.4 5.6-1.9 5.6-.5 5.6.1 5.5-197.2 5.6 198.8 5.6-3.4 5.6 3.8 5.6 1.6 5.6-3.3 5.5-195 5.6 197.1 5.6 1 5.6-1.5 5.6-1.1 5.6-193.7 5.5 195.4 5.6-3 5.6 3.1 5.6-1.5 5.6-132.6 5.6-64.4 5.6 2.8 5.5 192.5 5.6 2.2 5.6-198.7 5.6 201.8 5.6-199.9 5.6 197.1 5.5-.2 5.6-.9 5.6-1.4 5.6 3.6 5.6-2.2 5.6 3.3 5.5-2.5 5.6.5 5.6-1 5.6-131.4 5.6 133.3 5.6-1.1 5.5-197.8 5.6 196.9 5.6 1.1 5.6-198 5.6 196.4 5.6-128.7 5.5 132.2 5.6-196.1 5.6-3.8 5.6 199.1 5.6-198.6 5.6 197.8 5.5 1.3 5.6-3.2 5.6 2.7 5.6.7 5.6-3.2 5.6-194.7 5.6 196.2 5.5-196.8 5.6 197 5.6-2.4 5.6 3.6 5.6-2.2 5.6 1.1 5.5 1.5 5.6-1 5.6-199.3 5.6 199 5.6-.1 5.6-132.7 5.5 135.9 5.6-2.7 5.6.1 5.6-.5 5.6-195.4 5.6-.5 5.5 196.4 5.6.3 5.6-2.4 5.6.9 5.6.9 5.6-194.5 5.5 65.8 5.6 127.8 5.6.3 5.6-199.1" fill="none" color="#000"/><text transform="translate(479.7 467.9)" stroke="none" fill="#000" font-family="Arial" font-size="12" text-anchor="end" color="#000"><tspan>score p10=2336</tspan></text><path stroke="#56B4E9" d="M488 464h42.2M62.2 86.8H615" fill="none" color="#000"/><g><text transform="translate(479.7 485.9)" stroke="none" fill="#000" font-family="Arial" font-size="12" text-anchor="end" color="#000"><tspan>score median=4000</tspan></text><path stroke="#E69F00" d="M488 482h42.2" fill="none" color="#000"/></g><g fill="none" color="#000" stroke="currentColor"><path stroke="#000" d="M62.2 18.1V428H615V18.1H62.2z"/></g></svg>

<?xml version="1.0" encoding="utf-8"  standalone="no"?>
<svg 
 width="640" height="500"
 viewBox="0 0 640 500"
 xmlns="http://www.w3.org/2000/svg"
 xmlns:xlink="http://www.w3.org/1999/xlink"
>

<title>Gnuplot</title>
<desc>Produced by GNUPLOT 5.4 patchlevel 0 </desc>

<g id="gnuplot_canvas">

<rect x="0" y="0" width="640" height="500" fill="#ffffff"/>
<defs>

	<circle id='gpDot' r='0.5' stroke-width='0.5' stroke='currentColor'/>
	<path id='gpPt0' stroke-width='0.222' stroke='currentColor' d='M-1,0 h2 M0,-1 v2'/>
	<path id='gpPt1' stroke-width='0.222' stroke='currentColor' d='M-1,-1 L1,1 M1,-1 L-1,1'/>
	<path id='gpPt2' stroke-width='0.222' stroke='currentColor' d='M-1,0 L1,0 M0,-1 L0,1 M-1,-1 L1,1 M-1,1 L1,-1'/>
	<rect id='gpPt3' stroke-width='0.222' stroke='currentColor' x='-1' y='-1' width='2' height='2'/>
	<rect id='gpPt4' stroke-width='0.222' stroke='currentColor' fill='currentColor' x='-1' y='-1' width='2' height='2'/>
	<circle id='gpPt5' stroke-width='0.222' stroke='currentColor' cx='0' cy='0' r='1'/>
	<use xlink:href='#gpPt5' id='gpPt6' fill='currentColor' stroke='none'/>
	<path id='gpPt7' stroke-width='0.222' stroke='currentColor' d='M0,-1.33 L-1.33,0.67 L1.33,0.67 z'/>
	<use xlink:href='#gpPt7' id='gpPt8' fill='currentColor' stroke='none'/>
	<use xlink:href='#gpPt7' id='gpPt9' stroke='currentColor' transform='rotate(180)'/>
	<use xlink:href='#gpPt9' id='gpPt10' fill='currentColor' stroke='none'/>
	<use xlink:href='#gpPt3' id='gpPt11' stroke='currentColor' transform='rotate(45)'/>
	<use xlink:href='#gpPt11' id='gpPt12' fill='currentColor' stroke='none'/>
	<path id='gpPt13' stroke-width='0.222' stroke='currentColor' d='M0,1.330 L1.265,0.411 L0.782,-1.067 L-0.782,-1.076 L-1.265,0.411 z'/>
	<use xlink:href='#gpPt13' id='gpPt14' fill='currentColor' stroke='none'/>
	<filter id='textbox' filterUnits='objectBoundingBox' x='0' y='0' height='1' width='1'>
	  <feFlood flood-color='#FFFFFF' flood-opacity='1' result='bgnd'/>
	  <feComposite in='SourceGraphic' in2='bgnd' operator='atop'/>
	</filter>
	<filter id='greybox' filterUnits='objectBoundingBox' x='0' y='0' height='1' width='1'>
	  <feFlood flood-color='lightgrey' flood-opacity='1' result='grey'/>
	  <feComposite in='SourceGraphic' in2='grey' operator='atop'/>
	</filter>
</defs>
<g fill="none" color="#FFFFFF" stroke="black" stroke-width="1.00" stroke-linecap="butt" stroke-linejoin="miter">
</g>
<g fill="none" color="black" stroke="currentColor" stroke-width="1.00" stroke-linecap="butt" stroke-linejoin="miter">
	<path stroke='black'  d='M62.2,415.9 L71.2,415.9 M615.0,415.9 L606.0,415.9  '/>	<g transform="translate(53.9,419.8)" stroke="none" fill="black" font-family="Arial" font-size="12.00"  text-anchor="end">
		<text><tspan font-family="Arial" > 1950</tspan></text>
	</g>
</g>
<g fill="none" color="black" stroke="currentColor" stroke-width="1.00" stroke-linecap="butt" stroke-linejoin="miter">
	<path stroke='black'  d='M62.2,373.2 L71.2,373.2 M615.0,373.2 L606.0,373.2  '/>	<g transform="translate(53.9,377.1)" stroke="none" fill="black" font-family="Arial" font-size="12.00"  text-anchor="end">
		<text><tspan font-family="Arial" > 2000</tspan></text>
	</g>
</g>
<g fill="none" color="black" stroke="currentColor" stroke-width="1.00" stroke-linecap="butt" stroke-linejoin="miter">
	<path stroke='black'  d='M62.2,330.6 L71.2,330.6 M615.0,330.6 L606.0,330.6  '/>	<g transform="translate(53.9,334.5)" stroke="none" fill="black" font-family="Arial" font-size="12.00"  text-anchor="end">
		<text><tspan font-family="Arial" > 2050</tspan></text>
	</g>
</g>
<g fill="none" color="black" stroke="currentColor" stroke-width="1.00" stroke-linecap="butt" stroke-linejoin="miter">
	<path stroke='black'  d='M62.2,288.0 L71.2,288.0 M615.0,288.0 L606.0,288.0  '/>	<g transform="translate(53.9,291.9)" stroke="none" fill="black" font-family="Arial" font-size="12.00"  text-anchor="end">
		<text><tspan font-family="Arial" > 2100</tspan></text>
	</g>
</g>
<g fill="none" color="black" stroke="currentColor" stroke-width="1.00" stroke-linecap="butt" stroke-linejoin="miter">
	<path stroke='black'  d='M62.2,245.4 L71.2,245.4 M615.0,245.4 L606.0,245.4  '/>	<g transform="translate(53.9,249.3)" stroke="none" fill="black" font-family="Arial" font-size="12.00"  text-anchor="end">
		<text><tspan font-family="Arial" > 2150</tspan></text>
	</g>
</g>
<g fill="none" color="black" stroke="currentColor" stroke-width="1.00" stroke-linecap="butt" stroke-linejoin="miter">
	<path stroke='black'  d='M62.2,202.7 L71.2,202.7 M615.0,202.7 L606.0,202.7  '/>	<g transform="translate(53.9,206.6)" stroke="none" fill="black" font-family="Arial" font-size="12.00"  text-anchor="end">
		<text><tspan font-family="Arial" > 2200</tspan></text>
	</g>
</g>
<g fill="none" color="black" stroke="currentColor" stroke-width="1.00" stroke-linecap="butt" stroke-linejoin="miter">
	<path stroke='black'  d='M62.2,160.1 L71.2,160.1 M615.0,160.1 L606.0,160.1  '/>	<g transform="translate(53.9,164.0)" stroke="none" fill="black" font-family="Arial" font-size="12.00"  text-anchor="end">
		<text><tspan font-family="Arial" > 2250</tspan></text>
	</g>
</g>
<g fill="none" color="black" stroke="currentColor" stroke-width="1.00" stroke-linecap="butt" stroke-linejoin="miter">
	<path stroke='black'  d='M62.2,117.5 L71.2,117.5 M615.0,117.5 L606.0,117.5  '/>	<g transform="translate(53.9,121.4)" stroke="none" fill="black" font-family="Arial" font-size="12.00"  text-anchor="end">
		<text><tspan font-family="Arial" > 2300</tspan></text>
	</g>
</g>
<g fill="none" color="black" stroke="currentColor" stroke-width="1.00" stroke-linecap="butt" stroke-linejoin="miter">
	<path stroke='black'  d='M62.2,74.9 L71.2,74.9 M615.0,74.9 L606.0,74.9  '/>	<g transform="translate(53.9,78.8)" stroke="none" fill="black" font-family="Arial" font-size="12.00"  text-anchor="end">
		<text><tspan font-family="Arial" > 2350</tspan></text>
	</g>
</g>
<g fill="none" color="black" stroke="currentColor" stroke-width="1.00" stroke-linecap="butt" stroke-linejoin="miter">
	<path stroke='black'  d='M62.2,32.3 L71.2,32.3 M615.0,32.3 L606.0,32.3  '/>	<g transform="translate(53.9,36.2)" stroke="none" fill="black" font-family="Arial" font-size="12.00"  text-anchor="end">
		<text><tspan font-family="Arial" > 2400</tspan></text>
	</g>
</g>
<g fill="none" color="black" stroke="currentColor" stroke-width="1.00" stroke-linecap="butt" stroke-linejoin="miter">
	<path stroke='black'  d='M62.2,428.0 L62.2,419.0 M62.2,18.1 L62.2,27.1  '/>	<g transform="translate(62.2,449.9)" stroke="none" fill="black" font-family="Arial" font-size="12.00"  text-anchor="middle">
		<text><tspan font-family="Arial" > 0</tspan></text>
	</g>
</g>
<g fill="none" color="black" stroke="currentColor" stroke-width="1.00" stroke-linecap="butt" stroke-linejoin="miter">
	<path stroke='black'  d='M118.0,428.0 L118.0,419.0 M118.0,18.1 L118.0,27.1  '/>	<g transform="translate(118.0,449.9)" stroke="none" fill="black" font-family="Arial" font-size="12.00"  text-anchor="middle">
		<text><tspan font-family="Arial" > 10</tspan></text>
	</g>
</g>
<g fill="none" color="black" stroke="currentColor" stroke-width="1.00" stroke-linecap="butt" stroke-linejoin="miter">
	<path stroke='black'  d='M173.9,428.0 L173.9,419.0 M173.9,18.1 L173.9,27.1  '/>	<g transform="translate(173.9,449.9)" stroke="none" fill="black" font-family="Arial" font-size="12.00"  text-anchor="middle">
		<text><tspan font-family="Arial" > 20</tspan></text>
	</g>
</g>
<g fill="none" color="black" stroke="currentColor" stroke-width="1.00" stroke-linecap="butt" stroke-linejoin="miter">
	<path stroke='black'  d='M229.7,428.0 L229.7,419.0 M229.7,18.1 L229.7,27.1  '/>	<g transform="translate(229.7,449.9)" stroke="none" fill="black" font-family="Arial" font-size="12.00"  text-anchor="middle">
		<text><tspan font-family="Arial" > 30</tspan></text>
	</g>
</g>
<g fill="none" color="black" stroke="currentColor" stroke-width="1.00" stroke-linecap="butt" stroke-linejoin="miter">
	<path stroke='black'  d='M285.6,428.0 L285.6,419.0 M285.6,18.1 L285.6,27.1  '/>	<g transform="translate(285.6,449.9)" stroke="none" fill="black" font-family="Arial" font-size="12.00"  text-anchor="middle">
		<text><tspan font-family="Arial" > 40</tspan></text>
	</g>
</g>
<g fill="none" color="black" stroke="currentColor" stroke-width="1.00" stroke-linecap="butt" stroke-linejoin="miter">
	<path stroke='black'  d='M341.4,428.0 L341.4,419.0 M341.4,18.1 L341.4,27.1  '/>	<g transform="translate(341.4,449.9)" stroke="none" fill="black" font-family="Arial" font-size="12.00"  text-anchor="middle">
		<text><tspan font-family="Arial" > 50</tspan></text>
	</g>
</g>
<g fill="none" color="black" stroke="currentColor" stroke-width="1.00" stroke-linecap="butt" stroke-linejoin="miter">
	<path stroke='black'  d='M397.2,428.0 L397.2,419.0 M397.2,18.1 L397.2,27.1  '/>	<g transform="translate(397.2,449.9)" stroke="none" fill="black" font-family="Arial" font-size="12.00"  text-anchor="middle">
		<text><tspan font-family="Arial" > 60</tspan></text>
	</g>
</g>
<g fill="none" color="black" stroke="currentColor" stroke-width="1.00" stroke-linecap="butt" stroke-linejoin="miter">
	<path stroke='black'  d='M453.1,428.0 L453.1,419.0 M453.1,18.1 L453.1,27.1  '/>	<g transform="translate(453.1,449.9)" stroke="none" fill="black" font-family="Arial" font-size="12.00"  text-anchor="middle">
		<text><tspan font-family="Arial" > 70</tspan></text>
	</g>
</g>
<g fill="none" color="black" stroke="currentColor" stroke-width="1.00" stroke-linecap="butt" stroke-linejoin="miter">
	<path stroke='black'  d='M508.9,428.0 L508.9,419.0 M508.9,18.1 L508.9,27.1  '/>	<g transform="translate(508.9,449.9)" stroke="none" fill="black" font-family="Arial" font-size="12.00"  text-anchor="middle">
		<text><tspan font-family="Arial" > 80</tspan></text>
	</g>
</g>
<g fill="none" color="black" stroke="currentColor" stroke-width="1.00" stroke-linecap="butt" stroke-linejoin="miter">
	<path stroke='black'  d='M564.7,428.0 L564.7,419.0 M564.7,18.1 L564.7,27.1  '/>	<g transform="translate(564.7,449.9)" stroke="none" fill="black" font-family="Arial" font-size="12.00"  text-anchor="middle">
		<text><tspan font-family="Arial" > 90</tspan></text>
	</g>
</g>
<g fill="none" color="black" stroke="currentColor" stroke-width="1.00" stroke-linecap="butt" stroke-linejoin="miter">
</g>
<g fill="none" color="black" stroke="currentColor" stroke-width="1.00" stroke-linecap="butt" stroke-linejoin="miter">
	<path stroke='black'  d='M62.2,18.1 L62.2,428.0 L615.0,428.0 L615.0,18.1 L62.2,18.1 Z  '/></g>
<g fill="none" color="black" stroke="currentColor" stroke-width="1.00" stroke-linecap="butt" stroke-linejoin="miter">
</g>
	<g id="gnuplot_plot_1" ><title>pages</title>
<g fill="none" color="black" stroke="currentColor" stroke-width="1.00" stroke-linecap="butt" stroke-linejoin="miter">
	<g transform="translate(279.8,467.9)" stroke="none" fill="black" font-family="Arial" font-size="12.00"  text-anchor="end">
		<text><tspan font-family="Arial" >pages</tspan></text>
	</g>
</g>
<g fill="none" color="black" stroke="currentColor" stroke-width="1.00" stroke-linecap="butt" stroke-linejoin="miter">
	<path stroke='rgb(148,   0, 211)'  d='M288.1,464.0 L330.3,464.0 M62.2,26.0 L67.8,407.3 L73.4,408.6 L79.0,377.9 L84.5,415.4 L90.1,410.5
		L95.7,413.4 L101.3,409.8 L106.9,416.2 L112.5,413.5 L118.0,419.1 L123.6,244.1 L129.2,411.9 L134.8,417.1
		L140.4,413.3 L146.0,366.0 L151.5,412.3 L157.1,416.3 L162.7,419.1 L168.3,400.1 L173.9,415.8 L179.5,418.4
		L185.0,220.6 L190.6,360.6 L196.2,412.6 L201.8,420.1 L207.4,407.8 L213.0,411.2 L218.5,416.0 L224.1,417.1
		L229.7,410.1 L235.3,413.8 L240.9,415.2 L246.5,418.2 L252.1,331.4 L257.6,415.7 L263.2,418.4 L268.8,414.1
		L274.4,411.8 L280.0,416.6 L285.6,410.2 L291.1,418.6 L296.7,408.7 L302.3,358.6 L307.9,414.9 L313.5,347.6
		L319.1,406.6 L324.6,414.2 L330.2,416.9 L335.8,412.1 L341.4,279.9 L347.0,411.2 L352.6,419.5 L358.1,413.1
		L363.7,405.8 L369.3,419.5 L374.9,215.9 L380.5,410.2 L386.1,414.5 L391.6,420.0 L397.2,351.5 L402.8,419.2
		L408.4,419.0 L414.0,415.7 L419.6,409.3 L425.1,418.9 L430.7,417.0 L436.3,420.0 L441.9,314.2 L447.5,418.5
		L453.1,418.0 L458.7,415.4 L464.2,414.0 L469.8,418.9 L475.4,417.3 L481.0,417.3 L486.6,407.7 L492.2,418.5
		L497.7,416.5 L503.3,321.1 L508.9,409.0 L514.5,415.3 L520.1,418.0 L525.7,414.4 L531.2,411.2 L536.8,258.5
		L542.4,411.3 L548.0,411.5 L553.6,420.1 L559.2,224.2 L564.7,415.1 L570.3,413.0 L575.9,419.6 L581.5,413.1
		L587.1,413.0 L592.7,360.9 L598.2,414.0 L603.8,411.4 L609.4,418.1 L615.0,408.5  '/></g>
	</g>
	<g id="gnuplot_plot_2" ><title>pages+cached</title>
<g fill="none" color="black" stroke="currentColor" stroke-width="1.00" stroke-linecap="butt" stroke-linejoin="miter">
	<g transform="translate(279.8,485.9)" stroke="none" fill="black" font-family="Arial" font-size="12.00"  text-anchor="end">
		<text><tspan font-family="Arial" >pages+cached</tspan></text>
	</g>
</g>
<g fill="none" color="black" stroke="currentColor" stroke-width="1.00" stroke-linecap="butt" stroke-linejoin="miter">
	<path stroke='rgb(  0, 158, 115)'  d='M288.1,482.0 L330.3,482.0 M62.2,417.6 L67.8,387.3 L73.4,201.6 L79.0,392.4 L84.5,394.7 L90.1,196.9
		L95.7,394.1 L101.3,330.0 L106.9,394.1 L112.5,392.4 L118.0,394.6 L123.6,194.4 L129.2,395.8 L134.8,393.9
		L140.4,393.4 L146.0,393.5 L151.5,196.3 L157.1,395.1 L162.7,391.7 L168.3,395.5 L173.9,397.1 L179.5,393.8
		L185.0,198.8 L190.6,395.9 L196.2,396.9 L201.8,395.4 L207.4,394.3 L213.0,200.6 L218.5,396.0 L224.1,393.0
		L229.7,396.1 L235.3,394.6 L240.9,262.0 L246.5,197.6 L252.1,200.4 L257.6,392.9 L263.2,395.1 L268.8,196.4
		L274.4,398.2 L280.0,198.3 L285.6,395.4 L291.1,395.2 L296.7,394.3 L302.3,392.9 L307.9,396.5 L313.5,394.3
		L319.1,397.6 L324.6,395.1 L330.2,395.6 L335.8,394.6 L341.4,263.2 L347.0,396.5 L352.6,395.4 L358.1,197.6
		L363.7,394.5 L369.3,395.6 L374.9,197.6 L380.5,394.0 L386.1,265.3 L391.6,397.5 L397.2,201.4 L402.8,197.6
		L408.4,396.7 L414.0,198.1 L419.6,395.9 L425.1,397.2 L430.7,394.0 L436.3,396.7 L441.9,397.4 L447.5,394.2
		L453.1,199.5 L458.7,395.7 L464.2,198.9 L469.8,395.9 L475.4,393.5 L481.0,397.1 L486.6,394.9 L492.2,396.0
		L497.7,397.5 L503.3,396.5 L508.9,197.2 L514.5,396.2 L520.1,396.1 L525.7,263.4 L531.2,399.3 L536.8,396.6
		L542.4,396.7 L548.0,396.2 L553.6,200.8 L559.2,200.3 L564.7,396.7 L570.3,397.0 L575.9,394.6 L581.5,395.5
		L587.1,396.4 L592.7,201.9 L598.2,267.7 L603.8,395.5 L609.4,395.8 L615.0,196.7  '/></g>
	</g>
	<g id="gnuplot_plot_3" ><title>score p10=2336</title>
<g fill="none" color="black" stroke="currentColor" stroke-width="1.00" stroke-linecap="butt" stroke-linejoin="miter">
	<g transform="translate(479.7,467.9)" stroke="none" fill="black" font-family="Arial" font-size="12.00"  text-anchor="end">
		<text><tspan font-family="Arial" >score p10=2336</tspan></text>
	</g>
</g>
<g fill="none" color="black" stroke="currentColor" stroke-width="1.00" stroke-linecap="butt" stroke-linejoin="miter">
	<path stroke='rgb( 86, 180, 233)'  d='M488.0,464.0 L530.2,464.0 M62.2,86.8 L67.8,86.8 L73.4,86.8 L79.0,86.8 L84.5,86.8 L90.1,86.8
		L95.7,86.8 L101.3,86.8 L106.9,86.8 L112.5,86.8 L118.0,86.8 L123.6,86.8 L129.2,86.8 L134.8,86.8
		L140.4,86.8 L146.0,86.8 L151.5,86.8 L157.1,86.8 L162.7,86.8 L168.3,86.8 L173.9,86.8 L179.5,86.8
		L185.0,86.8 L190.6,86.8 L196.2,86.8 L201.8,86.8 L207.4,86.8 L213.0,86.8 L218.5,86.8 L224.1,86.8
		L229.7,86.8 L235.3,86.8 L240.9,86.8 L246.5,86.8 L252.1,86.8 L257.6,86.8 L263.2,86.8 L268.8,86.8
		L274.4,86.8 L280.0,86.8 L285.6,86.8 L291.1,86.8 L296.7,86.8 L302.3,86.8 L307.9,86.8 L313.5,86.8
		L319.1,86.8 L324.6,86.8 L330.2,86.8 L335.8,86.8 L341.4,86.8 L347.0,86.8 L352.6,86.8 L358.1,86.8
		L363.7,86.8 L369.3,86.8 L374.9,86.8 L380.5,86.8 L386.1,86.8 L391.6,86.8 L397.2,86.8 L402.8,86.8
		L408.4,86.8 L414.0,86.8 L419.6,86.8 L425.1,86.8 L430.7,86.8 L436.3,86.8 L441.9,86.8 L447.5,86.8
		L453.1,86.8 L458.7,86.8 L464.2,86.8 L469.8,86.8 L475.4,86.8 L481.0,86.8 L486.6,86.8 L492.2,86.8
		L497.7,86.8 L503.3,86.8 L508.9,86.8 L514.5,86.8 L520.1,86.8 L525.7,86.8 L531.2,86.8 L536.8,86.8
		L542.4,86.8 L548.0,86.8 L553.6,86.8 L559.2,86.8 L564.7,86.8 L570.3,86.8 L575.9,86.8 L581.5,86.8
		L587.1,86.8 L592.7,86.8 L598.2,86.8 L603.8,86.8 L609.4,86.8 L615.0,86.8  '/></g>
	</g>
	<g id="gnuplot_plot_4" ><title>score median=4000</title>
<g fill="none" color="black" stroke="currentColor" stroke-width="1.00" stroke-linecap="butt" stroke-linejoin="miter">
	<g transform="translate(479.7,
